packages/icons/src/car.svg

<svg width="24" height="24" viewBox="0 0 24 24" fill="none" xmlns="http://www.w3.org/2000/svg">
<path fill-rule="evenodd" clip-rule="evenodd" d="M16.1802 4C16.8212 3.99983 17.4455 4.20499 17.9614 4.58543C18.4774 4.96586 18.8579 5.50156 19.0472 6.114L19.0952 6.286L19.6132 8.407C20.1047 8.33099 20.5951 8.24765 21.0842 8.157L21.8042 8.019L22.1962 9.981C21.7572 10.068 21.3172 10.151 20.8762 10.227L20.7672 10.076C21.5083 11.0459 21.936 12.2187 21.9932 13.438L22.0002 13.719V20H20.0002V13.72C20.0003 12.9233 19.7625 12.1447 19.3172 11.484L19.1782 11.29L18.6252 10.566C14.2055 11.1339 9.73119 11.1312 5.3122 10.558L4.7702 11.299C4.32085 11.9141 4.05648 12.6448 4.0082 13.405L4.0002 13.66V20H2.0002V13.659C2.00009 12.4864 2.34358 11.3395 2.9882 10.36L3.0862 10.22L2.5262 10.12L1.8042 9.98L2.1962 8.02C2.9242 8.165 3.6562 8.294 4.3882 8.407L4.4232 8.332L4.4622 8.213L4.9762 6.243C5.13592 5.6302 5.48547 5.08366 5.97477 4.68165C6.46408 4.27965 7.06806 4.04279 7.7002 4.005L7.8802 4H16.1822H16.1802ZM16.1182 17C16.6228 16.9998 17.1088 17.1904 17.4787 17.5335C17.8487 17.8766 18.0754 18.3468 18.1132 18.85L18.1182 19V20H16.1182V19H7.9912V20H5.9912V19C5.99106 18.4953 6.18176 18.0091 6.52506 17.6391C6.86836 17.2691 7.33887 17.0426 7.8422 17.005L7.9922 17H16.1182ZM9.0002 13V15H6.0002V13H9.0002ZM18.0002 13V15H15.0002V13H18.0002ZM16.1802 6H7.8802C7.67992 5.99981 7.4842 6.05975 7.31838 6.17208C7.15257 6.28441 7.0243 6.44393 6.9502 6.63L6.9122 6.748L6.4092 8.676C10.1352 9.09552 13.8965 9.09451 17.6222 8.673L17.1532 6.763C17.1048 6.5642 16.9966 6.38503 16.8432 6.24966C16.6897 6.11429 16.4985 6.02925 16.2952 6.006L16.1812 6H16.1802Z" fill="black"/>
</svg>

<svg xmlns="http://www.w3.org/2000/svg" width="24" height="24" fill="none" viewBox="0 0 24 24">
  <path fill="#000" fill-rule="evenodd" d="M16.18 4a3 3 0 0 1 2.867 2.114l.048.172.518 2.121c.492-.076.982-.16 1.471-.25l.72-.138.392 1.962c-.439.087-.879.17-1.32.246l-.109-.151a6 6 0 0 1 1.226 3.362l.007.281V20h-2v-6.28a4 4 0 0 0-.683-2.236l-.139-.194-.553-.724c-4.42.568-8.894.565-13.313-.008l-.542.741a4 4 0 0 0-.762 2.106L4 13.66V20H2v-6.341a6 6 0 0 1 .988-3.299l.098-.14-.56-.1-.722-.14.392-1.96c.728.145 1.46.274 2.192.387l.035-.075.04-.119.513-1.97A3 3 0 0 1 7.7 4.005L7.88 4h8.302-.002Zm-.062 13a2 2 0 0 1 1.995 1.85l.005.15v1h-2v-1H7.991v1h-2v-1a2 2 0 0 1 1.851-1.995l.15-.005h8.126ZM9 13v2H6v-2h3Zm9 0v2h-3v-2h3Zm-1.82-7h-8.3a1 1 0 0 0-.93.63l-.038.118-.503 1.928a49.99 49.99 0 0 0 11.213-.003l-.469-1.91a1 1 0 0 0-.858-.757L16.181 6Z" clip-rule="evenodd"/>
</svg>
